src/images/mobile-icons/clear.svg

<svg viewBox="0 0 512 512" xmlns="http://www.w3.org/2000/svg" xmlns:xlink="http://www.w3.org/1999/xlink">
  <title>clear</title>
  <path d="M256,85.3333333 C350.256597,85.3333333 426.666667,161.743403 426.666667,256 C426.666667,350.256597 350.256597,426.666667 256,426.666667 C161.743403,426.666667 85.3333333,350.256597 85.3333333,256 C85.3333333,161.743403 161.743403,85.3333333 256,85.3333333 Z M335.084945,176.915055 C326.75376,168.58387 313.24624,168.58387 304.915055,176.915055 L304.915055,176.915055 L255.999667,225.829667 L207.084945,176.915055 L205.075188,175.140365 C196.706309,168.633167 184.60538,169.224731 176.915055,176.915055 C168.58387,185.24624 168.58387,198.75376 176.915055,207.084945 L176.915055,207.084945 L225.829667,255.999667 L176.915055,304.915055 L175.140365,306.924812 C168.633167,315.293691 169.224731,327.39462 176.915055,335.084945 C185.24624,343.41613 198.75376,343.41613 207.084945,335.084945 L207.084945,335.084945 L255.999667,286.169667 L304.915055,335.084945 L306.924812,336.859635 C315.293691,343.366833 327.39462,342.775269 335.084945,335.084945 C343.41613,326.75376 343.41613,313.24624 335.084945,304.915055 L335.084945,304.915055 L286.169667,255.999667 L335.084945,207.084945 L336.859635,205.075188 C343.366833,196.706309 342.775269,184.60538 335.084945,176.915055 Z" fill="#000" stroke="none" stroke-width="1" fill-rule="evenodd"></path>
</svg>

<svg viewBox="0 0 512 512" xmlns="http://www.w3.org/2000/svg" xmlns:xlink="http://www.w3.org/1999/xlink">
  <title>clear</title>
  <path d="M256 85.333c94.257 0 170.667 76.41 170.667 170.667S350.257 426.667 256 426.667 85.333 350.257 85.333 256 161.743 85.333 256 85.333zm79.085 91.582c-8.331-8.331-21.839-8.331-30.17 0L256 225.83l-48.915-48.915-2.01-1.775c-8.369-6.507-20.47-5.915-28.16 1.775-8.331 8.331-8.331 21.839 0 30.17L225.83 256l-48.915 48.915-1.775 2.01c-6.507 8.369-5.915 20.47 1.775 28.16 8.331 8.331 21.839 8.331 30.17 0L256 286.17l48.915 48.915 2.01 1.775c8.369 6.507 20.47 5.915 28.16-1.775 8.331-8.331 8.331-21.839 0-30.17L286.17 256l48.915-48.915 1.775-2.01c6.507-8.369 5.915-20.47-1.775-28.16z" fill="#000" stroke="none" stroke-width="1" fill-rule="evenodd"></path>
</svg>
